img/logo.svg

<svg width="833" height="241" viewBox="0 0 833 241" fill="none" xmlns="http://www.w3.org/2000/svg">
<rect x="404.698" y="186.434" width="381.962" height="54.566" rx="27.283" fill="#FFF1DA"/>
<rect x="741.189" width="90.9434" height="54.566" rx="27.283" fill="#FFF1DA"/>
<rect y="186.434" width="90.9434" height="54.566" rx="27.283" fill="#FFF1DA"/>
<path d="M105.732 41.2652V69.3644H71.8687V168.252H36.5646V69.3644H3.06177V41.2652H105.732Z" fill="black"/>
<path d="M154.098 85.0351C158.06 79.2711 162.864 74.708 168.507 71.3457C174.151 67.9834 180.215 66.3023 186.7 66.3023V103.948H176.793C169.108 103.948 163.404 105.449 159.681 108.451C155.959 111.453 154.098 116.677 154.098 124.122V168.252H118.793V67.2029H154.098V85.0351Z" fill="black"/>
<path d="M193.592 117.637C193.592 107.19 195.454 98.0639 199.176 90.2586C203.019 82.4533 208.182 76.4492 214.667 72.2463C221.271 68.0435 228.596 65.9421 236.642 65.9421C243.606 65.9421 249.61 67.323 254.654 70.0849C259.697 72.8468 263.6 76.5693 266.362 81.2525V67.2029H301.666V168.252H266.362V154.202C263.6 158.885 259.637 162.608 254.474 165.37C249.43 168.132 243.486 169.513 236.642 169.513C228.596 169.513 221.271 167.411 214.667 163.208C208.182 159.005 203.019 153.001 199.176 145.196C195.454 137.271 193.592 128.084 193.592 117.637ZM266.362 117.637C266.362 111.153 264.561 106.049 260.958 102.327C257.476 98.6043 253.153 96.743 247.989 96.743C242.706 96.743 238.323 98.6043 234.84 102.327C231.358 105.929 229.617 111.033 229.617 117.637C229.617 124.122 231.358 129.285 234.84 133.128C238.323 136.85 242.706 138.712 247.989 138.712C253.153 138.712 257.476 136.85 260.958 133.128C264.561 129.405 266.362 124.242 266.362 117.637Z" fill="black"/>
<path d="M370.236 134.929L389.149 67.2029H426.795L392.031 168.252H348.081L313.318 67.2029H350.963L370.236 134.929Z" fill="black"/>
<path d="M535.303 116.557C535.303 119.318 535.123 122.08 534.763 124.842H467.938C468.298 130.366 469.799 134.509 472.441 137.271C475.202 139.912 478.685 141.233 482.888 141.233C488.772 141.233 492.975 138.592 495.496 133.308H533.142C531.581 140.273 528.519 146.517 523.956 152.041C519.513 157.444 513.869 161.707 507.024 164.829C500.18 167.952 492.614 169.513 484.329 169.513C474.362 169.513 465.476 167.411 457.671 163.208C449.985 159.005 443.921 153.001 439.478 145.196C435.155 137.391 432.994 128.204 432.994 117.637C432.994 107.07 435.155 97.9439 439.478 90.2586C443.801 82.4533 449.805 76.4492 457.49 72.2463C465.296 68.0435 474.242 65.9421 484.329 65.9421C494.296 65.9421 503.122 67.9834 510.807 72.0662C518.492 76.149 524.496 82.033 528.819 89.7183C533.142 97.2834 535.303 106.23 535.303 116.557ZM499.279 107.731C499.279 103.408 497.838 100.045 494.956 97.6437C492.074 95.1219 488.472 93.8611 484.149 93.8611C479.826 93.8611 476.283 95.0619 473.521 97.4635C470.759 99.7451 468.958 103.167 468.118 107.731H499.279Z" fill="black"/>
<path d="M585.055 34.9609V168.252H549.751V34.9609H585.055Z" fill="black"/>
<path d="M640.464 34.9609V168.252H605.16V34.9609H640.464Z" fill="black"/>
<path d="M707.581 169.513C697.494 169.513 688.428 167.411 680.382 163.208C672.457 159.005 666.213 153.001 661.65 145.196C657.087 137.391 654.805 128.204 654.805 117.637C654.805 107.19 657.087 98.0639 661.65 90.2586C666.333 82.4533 672.637 76.4492 680.563 72.2463C688.608 68.0435 697.674 65.9421 707.761 65.9421C717.848 65.9421 726.854 68.0435 734.78 72.2463C742.825 76.4492 749.129 82.4533 753.692 90.2586C758.376 98.0639 760.717 107.19 760.717 117.637C760.717 128.084 758.376 137.271 753.692 145.196C749.129 153.001 742.825 159.005 734.78 163.208C726.734 167.411 717.668 169.513 707.581 169.513ZM707.581 138.892C712.504 138.892 716.587 137.091 719.829 133.488C723.192 129.766 724.873 124.482 724.873 117.637C724.873 110.793 723.192 105.569 719.829 101.967C716.587 98.3642 712.564 96.5629 707.761 96.5629C702.958 96.5629 698.935 98.3642 695.693 101.967C692.451 105.569 690.83 110.793 690.83 117.637C690.83 124.602 692.391 129.886 695.513 133.488C698.635 137.091 702.658 138.892 707.581 138.892Z" fill="black"/>
</svg>

<svg width="833" height="241" fill="none" xmlns="http://www.w3.org/2000/svg"><rect x="404.698" y="186.434" width="381.962" height="54.566" rx="27.283" fill="#FFF1DA"/><rect x="741.189" width="90.943" height="54.566" rx="27.283" fill="#FFF1DA"/><rect y="186.434" width="90.943" height="54.566" rx="27.283" fill="#FFF1DA"/><path d="M105.732 41.265v28.1H71.869v98.887H36.565V69.364H3.062V41.265h102.67zm48.366 43.77c3.962-5.764 8.766-10.327 14.409-13.69 5.644-3.362 11.708-5.043 18.193-5.043v37.646h-9.907c-7.685 0-13.389 1.501-17.112 4.503-3.722 3.002-5.583 8.226-5.583 15.671v44.13h-35.305V67.202h35.305v17.833zm39.494 32.602c0-10.447 1.862-19.573 5.584-27.378 3.843-7.806 9.006-13.81 15.491-18.013 6.604-4.203 13.929-6.304 21.975-6.304 6.964 0 12.968 1.381 18.012 4.143 5.043 2.762 8.946 6.484 11.708 11.168v-14.05h35.304v101.049h-35.304v-14.05c-2.762 4.683-6.725 8.406-11.888 11.168-5.044 2.762-10.988 4.143-17.832 4.143-8.046 0-15.371-2.102-21.975-6.305-6.485-4.203-11.648-10.207-15.491-18.012-3.722-7.925-5.584-17.112-5.584-27.559zm72.77 0c0-6.484-1.801-11.588-5.404-15.31-3.482-3.723-7.805-5.584-12.969-5.584-5.283 0-9.666 1.861-13.149 5.584-3.482 3.602-5.223 8.706-5.223 15.31 0 6.485 1.741 11.648 5.223 15.491 3.483 3.722 7.866 5.584 13.149 5.584 5.164 0 9.487-1.862 12.969-5.584 3.603-3.723 5.404-8.886 5.404-15.491zm103.874 17.292l18.913-67.726h37.646l-34.764 101.049h-43.95l-34.763-101.05h37.645l19.273 67.727zm165.067-18.372c0 2.761-.18 5.523-.54 8.285h-66.825c.36 5.524 1.861 9.667 4.503 12.429 2.761 2.641 6.244 3.962 10.447 3.962 5.884 0 10.087-2.641 12.608-7.925h37.646c-1.561 6.965-4.623 13.209-9.186 18.733-4.443 5.403-10.087 9.666-16.932 12.788-6.844 3.123-14.41 4.684-22.695 4.684-9.967 0-18.853-2.102-26.658-6.305-7.686-4.203-13.75-10.207-18.193-18.012-4.323-7.805-6.484-16.992-6.484-27.559s2.161-19.693 6.484-27.378c4.323-7.806 10.327-13.81 18.012-18.013 7.806-4.203 16.752-6.304 26.839-6.304 9.967 0 18.793 2.041 26.478 6.124 7.685 4.083 13.689 9.967 18.012 17.652 4.323 7.565 6.484 16.512 6.484 26.839zm-36.024-8.826c0-4.323-1.441-7.686-4.323-10.087-2.882-2.522-6.484-3.783-10.807-3.783s-7.866 1.2-10.628 3.602c-2.762 2.282-4.563 5.704-5.403 10.268h31.161zm85.776-72.771v133.292h-35.304V34.961h35.304zm55.409 0v133.292H605.16V34.961h35.304zm67.117 134.553c-10.087 0-19.153-2.102-27.199-6.305-7.925-4.203-14.169-10.207-18.732-18.012-4.563-7.805-6.845-16.992-6.845-27.559 0-10.447 2.282-19.573 6.845-27.378 4.683-7.806 10.987-13.81 18.913-18.013 8.045-4.203 17.111-6.304 27.198-6.304s19.093 2.102 27.019 6.304c8.045 4.203 14.349 10.207 18.912 18.013 4.684 7.805 7.025 16.931 7.025 27.378s-2.341 19.634-7.025 27.559c-4.563 7.805-10.867 13.809-18.912 18.012-8.046 4.203-17.112 6.305-27.199 6.305zm0-30.621c4.923 0 9.006-1.801 12.248-5.404 3.363-3.722 5.044-9.006 5.044-15.851 0-6.844-1.681-12.068-5.044-15.67-3.242-3.603-7.265-5.404-12.068-5.404s-8.826 1.801-12.068 5.404c-3.242 3.602-4.863 8.826-4.863 15.67 0 6.965 1.561 12.249 4.683 15.851 3.122 3.603 7.145 5.404 12.068 5.404z" fill="#000"/></svg>
